X:1
T:Title
%%score { 1 | 2 }
L:1/8
M:6/8
K:Db
V:1 treble nm="Grand Piano"
V:2 bass 
V:1
 z3 z2[Q:1/4=84] F | FED F[FA][FA] | [GB][Ac][Bd] [FA]2 [FA] | [FA][EG][DF] [GB][FA][DF] | %4
[M:5/8] [CE]-[CE]- [CE]3 |[M:1/8] F |[M:3/4] FE DF [FA][FA] | [GB][Ac] [Bd] [FA]2 [FA] | %8
 Bc dc [GB][Gc] |[M:5/8] [Fd]-[Fd]- [Fd]3 |[M:1/8] [FA] |[M:3/4] [FA][_F=G] [E_G] =F2 [Fd] | %12
 [Gd]2 [Gc] [Gc]2 [EG] | [EG][=DF] [EG][Ac] [GB][EG] |[M:5/8] [DF]-[DF]- [DF]3 |[M:1/8] [FA] | %16
[M:3/4] [FA][_F=G] [=FA][Fd] [Gc][Ad] | ed B [FA]2 [FA] | Bc dc [GB][Gc] | %19
[M:5/8] [Fd]-[Fd]- [Fd]3 |] %20
V:2
 z3 z2 [D,A,D] | [D,A,D][D,G,D][D,F,] [D,A,D][D,D][D,D] | [G,D][G,D][G,D] [D,D]2 [D,D] | %3
 [D,D][D,A,][D,A,] [D,D][D,D][D,A,] |[M:5/8] [A,,A,]-[A,,A,]- [A,,A,]3 |[M:1/8] [D,A,D] | %6
[M:3/4] [D,A,D][D,G,D] [D,F,][D,A,D] [D,D][D,D] | [G,D][G,D] [G,D] [D,D]2 [D,D] | %8
 [G,DG][G,CG] [G,B,G][A,E] [A,,A,][A,,A,] |[M:5/8] [D,A,]-[D,A,]- [D,A,]3 |[M:1/8] [D,D] | %11
[M:3/4] [D,D][D,B,] [D,C] [D,D]2 [D,A,] | [E,A,]2 [A,,A,] [A,,A,]2 [A,,A,] | %13
 [A,,A,][A,,A,] [A,,A,][A,,A,] [A,,A,][A,,A,] |[M:5/8] [D,A,]-[D,A,]- [D,A,]3 |[M:1/8] [D,D] | %16
[M:3/4] [D,D][D,D] [D,D][D,A,] [E,A,][F,D] | [G,B,G][G,B,G] [G,DG] [D,D]2 [D,D] | %18
 [G,DG][G,CG] [G,B,G][A,E] [A,,A,][A,,A,] |[M:5/8] [D,A,]-[D,A,]- [D,A,]3 |] %20

